X:1
T:6th Sonata
T:6th Sonata
T:for Piano
T:A. Scriabin
C:A. Scriabin
%%score { ( 1 4 5 ) | ( 2 3 ) }
L:1/8
Q:1/4=80
M:3/4
K:C
V:1 treble nm="Piano" snm="Pno."
V:4 treble 
V:5 treble 
V:2 bass 
V:3 bass 
V:1
!mf!{/_B,} !tenuto![=B,F^c]6 | z2 !tenuto![B,F^c]2 !tenuto!_B,2 | %2
 (6:4:6(!tenuto!B,/^c/) z/ (B/G/F/ !tenuto!^C4- | C3) !tenuto!^C2 !tenuto!=C | !tenuto![B,F^c]6- | %5
 [B,Fc]3!pp! ^C2 =C | !tenuto![B,F^c]6- | [B,Fc] z!p! !tenuto![B,F^c]2 !tenuto!_B,2 | %8
 (6:4:6(!tenuto!B,/^c/) z/ (B/G/F/ !tenuto![^G,^C]4) | %9
 (6:4:6(!tenuto!D/e/) z/ (d/_B/_A/ !tenuto![B,E]4) | %10
!mf!!<(! (3:2:2(F2 G- (3:2:2G2 _A- (3_B_c_d!<)! |!>(! (3_f_e__e _B2- (3B__B_A)!>)! | %12
!p! (_F_E __E_D- (3DFG | _B4- (3B) z _B, |!mf! !tenuto![B,F^c]6 | %15
 z2 !tenuto![B,F^c]2 !tenuto!_B,2 | (6:4:6(!tenuto!B,/^c/) z/ (B/G/F/ !tenuto!^C4- | %17
 C3) !tenuto!^C2 !tenuto!=C | !tenuto![B,F^c]6- | [B,Fc]3!pp!!pp! ^C2 =C | !tenuto![B,F^c]6- | %21
 [B,Fc] z!p!!p! !tenuto![B,F^c]2 !tenuto!_B,2 | %22
 (6:4:6(!tenuto!B,/^c/) z/ (B/G/F/ !tenuto![^G,^C]4) | %23
!<(! (6:4:6(D/e/) z/ (d/_B/_A/ E) (.[_A,E]2 .[A,_E]) | (6:4:6(D/e/) z/ (d/_B/_A/ !tenuto![B,E]4) | %25
 (6:4:6(!tenuto!F/g/) z/ (f/_d/_c/ (3:2:2G)!<)!!f! ([_CG]2 (3:2:2[CG]2 [C_G]) | %26
[M:9/8]!mp! (F2 G- G2!<(! _A- _B_c_d!<)! |!>(! _f_e__e _B3- B!>)!__B_A) | %28
[M:3/4]!pp! _F_E __E_D- (3DFG | _B2 [_F_d]4 |[M:9/8] ^D2 ^E- E2 (^F ^G)AB | d^c=c ^G3- G=G^F | %32
[M:3/4] z6 | z6 | z6 | z6 | z6 | z6 | z6 | z6 | z6 | z6 | z6 | z6 | z6 | z6 | z6 | z6 | z6 | z6 | %50
 z6 | z6 | z6 | z6 | z6 | z6 | z6 | z6 | z6 | z6 | z6 | z6 |] %62
V:2
{/[D,,-G,,F,-]} !tenuto![D,,_A,,F,]6 | z2 !tenuto![D,,A,,F,]2 !tenuto![D,,_A,,F,]2 | %2
 !tenuto![D,,G,,F,] z !tenuto![D,,_A,,F,]4- | [D,,A,,F,]3 !tenuto![D,,_A,,F,]2 !tenuto![D,,A,,F,] | %4
 !tenuto![D,,F,]6- | [D,,F,]3 [D,,F,]3 | !tenuto![D,,F,]6- | %7
 [D,,F,] z !tenuto![D,,A,,F,]2 !tenuto![D,,_A,,F,]2 | %8
 ([G,,F,]/D,,/) z ([^E,,D,]/B,,,/) z (B,,,/B,,,,/) z | %9
 ([_B,,_A,]/F,,/) z ([^G,,F,]/D,,/) z (D,,/D,,,/) z | ([_D,_C]/_A,,/) z ([F,C]/G,,/) z z2 | %11
 ([F,_C]/[_D,,G,,]/) z{/[D,,G,,]} [D,,G,,F,C]4 | _A,,/_D,,D,,/{/G,,} A,,/D,,D,,/ G,,/D,,D,,/ | %13
 x4 (3:2:4x x (_G,,/=G,,/ | !tenuto![D,,_A,,F,]6) | z2 !tenuto![D,,A,,F,]2 !tenuto![D,,_A,,F,]2 | %16
 !tenuto![D,,G,,F,] z !tenuto![D,,_A,,F,]4- | [D,,A,,F,]3 !tenuto![D,,_A,,F,]2 !tenuto![D,,A,,F,] | %18
 !tenuto![D,,F,]6- | [D,,F,]3 [D,,F,]3 | !tenuto![D,,F,]6- | %21
 [D,,F,] z !tenuto![D,,A,,F,]2 !tenuto![D,,_A,,F,]2 | %22
 ([G,,F,]/D,,/) z ([^E,,D,]/B,,,/) z (B,,,/B,,,,/) z | ([_B,,_A,]/F,,/) z z (.[F,,_C,]2 .[F,,C,]) | %24
 ([_B,,_A,]/F,,/) z ([^G,,F,]/D,,/) z (D,,/D,,,/) z | %25
 ([_D,_C]/_A,,/) z (3:2:2z ([A,,__E,]2 (3:2:2[A,,E,]2 [A,,E,]) |[M:9/8] (_E3 E3 __E3 | _c3) x2 z4 | %28
[M:3/4] _A,,/_D,,D,,/{/G,,} A,,/D,,D,,/ G,,/D,,D,,/ | %29
 (3:2:5[_D,,_G,,_F,]!<(!(D,,/G,,/F,/_B,/!<)!!>(! T_A3 __A)!>)! |[M:9/8] (^C3 C3 =C3 | %31
 A/)^D/A,/^D,/^E,,/B,,,/ z B,,,/E,,/D,/A,/ D z z |[M:3/4] z6 | z6 | z6 | z6 | z6 | z6 | z6 | z6 | %40
 z6 | z6 | z6 | z6 | z6 | z6 | z6 | z6 | z6 | z6 | z6 | z6 | z6 | z6 | z6 | z6 | z6 | z6 | z6 | %59
 z6 | z6 | z6 |] %62
V:3
 z2 [D,,,D,,]<[D,,,D,,] z2 | x6 | x6 | x6 | (A,,3 ^G,,2 A,,- | A,,3) (A,,2 _A,,) | %6
 (A,,3 ^G,, A,,2- | A,,) x2 x3 | x6 | x6 | x6 | x6 | _A,,2 A,,2 G,,2 | x6 | %14
 z2 [D,,,D,,]<[D,,,D,,] z2 | x6 | x6 | x6 | (A,,3 ^G,,2 A,,- | A,,3) (A,,2 _A,,) | %20
 (A,,3 ^G,, A,,2- | A,,) x2 x3 | x6 | x6 | x6 | x6 | %26
[M:9/8] (_E/_C/_D,/_A,,/) z (E/C/F,/G,,/) z (__E/C/F,/G,,/) z | %27
 (_c/F/_C/F,/G,,/_D,,/) z (D,,/G,,/F,/C/ F) z z |[M:3/4] _A,,2 A,,2 G,,2 | x6 | %30
[M:9/8] ^C/A,/B,,/^G,,/ z C/A,/^D,/^E,,/ z =C/A,/D,/_F,,/ z | x9 |[M:3/4] x6 | x6 | x6 | x6 | x6 | %37
 x6 | x6 | x6 | x6 | x6 | x6 | x6 | x6 | x6 | x6 | x6 | x6 | x6 | x6 | x6 | x6 | x6 | x6 | x6 | %56
 x6 | x6 | x6 | x6 | x6 | x6 |] %62
V:4
 x6 | x6 | x6 | x6 | x6 | x6 | x6 | x6 | x6 | x6 | F6- | F z __E4 | [F,_C]2 [F,_B,]4 | %13
[I:staff +1] (3:2:5[_D,,_G,,_F,_B,_F]D,,/(G,,/F,/B,/[I:staff -1] T_A2 (3A__A)[I:staff +1][D,,E,] | %14
 x6 | x6 | x6 | x6 | x6 | x6 | x6 | x6 | x6 | x6 | x6 | x6 |[M:9/8][I:staff -1] F6- F3- | %27
 F z z __E6 |[M:3/4] [F,_C]2 [F,_B,]4 | [_B,_F] z z4 |[M:9/8] (^D6 ^F3 | ^D) z z C6 |[M:3/4] z6 | %33
 x6 | x6 | x6 | x6 | x6 | x6 | x6 | x6 | x6 | x6 | x6 | x6 | x6 | x6 | x6 | x6 | x6 | x6 | x6 | %52
 x6 | x6 | x6 | x6 | x6 | x6 | x6 | x6 | x6 | x6 |] %62
V:5
 x6 | x6 | x6 | x6 | x6 | x6 | x6 | x6 | x6 | x6 | x4 A2 | _A2 x4 | x6 | x6 | x6 | x6 | x6 | x6 | %18
 x6 | x6 | x6 | x6 | x6 | x6 | x6 | x6 |[M:9/8] x6 A3 | _A2 x x2 x4 |[M:3/4] x6 | x6 |[M:9/8] x9 | %31
 ^F2 x x2 x4 |[M:3/4] x6 | x6 | x6 | x6 | x6 | x6 | x6 | x6 | x6 | x6 | x6 | x6 | x6 | x6 | x6 | %47
 x6 | x6 | x6 | x6 | x6 | x6 | x6 | x6 | x6 | x6 | x6 | x6 | x6 | x6 | x6 |] %62

